build/system/PowerSolid.svg

<svg xmlns="http://www.w3.org/2000/svg" fill="none" viewBox="0 0 24 24" focusable="false"><path d="M0 0H24V24H0z"/><path fill="#74767B" fill-rule="evenodd" d="M12 21C16.9706 21 21 16.9706 21 12C21 7.02944 16.9706 3 12 3C7.02944 3 3 7.02944 3 12C3 16.9706 7.02944 21 12 21ZM11.35 6.65C11.35 6.29101 11.641 6 12 6C12.359 6 12.65 6.29101 12.65 6.65L12.65 10.35C12.65 10.709 12.359 11 12 11C11.641 11 11.35 10.709 11.35 10.35L11.35 6.65ZM9.51972 7.60927C9.73532 7.8963 9.67741 8.30377 9.39038 8.51937C8.33235 9.31409 7.65001 10.5773 7.65001 12C7.65001 14.4025 9.59757 16.35 12 16.35C14.4024 16.35 16.35 14.4025 16.35 12C16.35 10.5773 15.6677 9.31409 14.6096 8.51937C14.3226 8.30377 14.2647 7.8963 14.4803 7.60927C14.6959 7.32224 15.1033 7.26433 15.3904 7.47993C16.7612 8.50962 17.65 10.1511 17.65 12C17.65 15.1204 15.1204 17.65 12 17.65C8.8796 17.65 6.35001 15.1204 6.35001 12C6.35001 10.1511 7.23877 8.50962 8.60963 7.47993C8.89666 7.26433 9.30413 7.32224 9.51972 7.60927Z"/></svg>

<svg xmlns="http://www.w3.org/2000/svg" fill="none" viewBox="0 0 24 24" focusable="false"><path fill="#74767B" fill-rule="evenodd" d="M12 21a9 9 0 0 0 9-9c0-4.98-4.03-9-9-9-4.98 0-9 4.02-9 9 0 4.97 4.02 9 9 9m-.65-14.36a.644.644 0 0 1 1.29 0v3.71c0 .35-.29.65-.64.65-.36 0-.65-.3-.65-.65zm-1.84.96c.22.29.16.7-.12.91A4.36 4.36 0 0 0 7.64 12a4.355 4.355 0 0 0 8.71 0c0-1.43-.69-2.69-1.75-3.49a.65.65 0 0 1-.12-.91.66.66 0 0 1 .91-.13A5.65 5.65 0 0 1 17.64 12c0 3.12-2.52 5.65-5.64 5.65-3.13 0-5.65-2.53-5.65-5.65 0-1.85.88-3.5 2.25-4.53.29-.21.7-.15.91.13"/></svg>
